icons-rebrand/svg/closed-captions-bold.svg

<svg xmlns="http://www.w3.org/2000/svg" width="32" height="32" viewBox="0 0 32 32"><path d="M25.0005 3.5H7.00049C5.67488 3.50156 4.40402 4.02884 3.46668 4.96619C2.52933 5.90353 2.00205 7.1744 2.00049 8.5V20.5C2.00364 21.2608 2.1797 22.011 2.51535 22.6938C2.851 23.3766 3.33747 23.9742 3.93799 24.4414C3.66995 24.805 3.32902 25.1086 2.93699 25.333C2.66213 25.4512 2.4276 25.6468 2.262 25.896C2.0964 26.1452 2.0069 26.4372 2.0044 26.7363C2.02442 27.0385 2.13207 27.3283 2.31418 27.5702C2.49629 27.8122 2.74496 27.9958 3.02979 28.0986C3.70082 28.3832 4.4252 28.52 5.15379 28.5C6.88897 28.4886 8.57409 27.9173 9.95848 26.8711C10.1919 26.7041 10.4575 26.4746 10.7319 26.2354C11.0222 25.9607 11.3381 25.7144 11.6753 25.5H25.0005C26.3261 25.4984 27.597 24.9712 28.5343 24.0338C29.4716 23.0965 29.9989 21.8256 30.0005 20.5V8.5C29.9989 7.1744 29.4716 5.90353 28.5343 4.96619C27.597 4.02884 26.3261 3.50156 25.0005 3.5ZM28.0005 20.5C27.9996 21.2954 27.6833 22.0579 27.1208 22.6204C26.5584 23.1828 25.7959 23.4991 25.0005 23.5H11.6284C10.8013 23.4541 10.144 24.0908 9.41456 24.7305C9.1919 24.9248 8.97901 25.1152 8.79056 25.2481L8.76419 25.2676C7.61828 26.1455 6.19307 26.5785 4.75245 26.4863C5.31584 25.97 5.79494 25.3686 6.17237 24.7041C6.27281 24.5172 6.32169 24.3068 6.31397 24.0947C6.29845 23.9056 6.23354 23.7239 6.12574 23.5678C6.01794 23.4117 5.87103 23.2866 5.69971 23.2051C5.19192 22.9581 4.76353 22.5737 4.46317 22.0956C4.16282 21.6174 4.00252 21.0647 4.00049 20.5V8.5C4.00136 7.70462 4.31771 6.94206 4.88013 6.37964C5.44255 5.81722 6.20511 5.50087 7.00049 5.5H25.0005C25.7959 5.50087 26.5584 5.81722 27.1208 6.37964C27.6833 6.94206 27.9996 7.70462 28.0005 8.5V20.5Z M12.3813 16.96C12.1735 16.966 11.967 16.924 11.778 16.8373C11.589 16.7506 11.4225 16.6215 11.2915 16.46C10.8806 15.8443 10.6899 15.1078 10.7505 14.3701C10.7119 13.7208 10.8538 13.0735 11.1607 12.5C11.29 12.2807 11.4766 12.1006 11.7004 11.9792C11.9242 11.8577 12.1768 11.7994 12.4312 11.8105C12.8049 11.7943 13.1703 11.924 13.4502 12.1722C13.7301 12.4204 13.9026 12.7676 13.9312 13.1406H15.6109C15.5201 12.4545 15.1823 11.825 14.6607 11.3701C14.0307 10.8644 13.2383 10.6051 12.4312 10.6406C11.5601 10.5968 10.7062 10.8946 10.0513 11.4707C9.68194 11.8528 9.39741 12.3086 9.21633 12.8082C9.03525 13.3079 8.9617 13.8401 9.00049 14.3701C8.94871 15.3418 9.24704 16.2998 9.84131 17.0703C10.1504 17.4282 10.5372 17.7108 10.9722 17.8963C11.4072 18.0818 11.8788 18.1654 12.3511 18.1406C13.1293 18.1783 13.8985 17.9605 14.5415 17.5205C14.8687 17.2542 15.1371 16.9229 15.3297 16.5475C15.5223 16.1722 15.635 15.761 15.6606 15.3399H13.9516C13.8774 16.4199 13.354 16.96 12.3813 16.96Z M19.7759 16.96C19.568 16.9658 19.3616 16.9237 19.1727 16.837C18.9837 16.7503 18.8172 16.6213 18.686 16.46C18.2759 15.844 18.0857 15.1077 18.146 14.3701C18.1074 13.7208 18.2494 13.0735 18.5562 12.5C18.6854 12.2805 18.8719 12.1003 19.0957 11.9789C19.3196 11.8574 19.5723 11.7992 19.8267 11.8106C20.2003 11.7947 20.5656 11.9244 20.8454 12.1726C21.1252 12.4207 21.2978 12.7678 21.3267 13.1406H23.0064C22.9152 12.4546 22.5775 11.8253 22.0562 11.3701C21.4262 10.8645 20.6338 10.6052 19.8267 10.6406C18.9553 10.5967 18.1011 10.8945 17.4458 11.4707C17.0768 11.853 16.7926 12.3088 16.6117 12.8084C16.4308 13.3081 16.3573 13.8402 16.396 14.3701C16.3438 15.3418 16.6422 16.3 17.2369 17.0703C17.5459 17.4283 17.9327 17.7109 18.3677 17.8964C18.8027 18.0819 19.2743 18.1655 19.7466 18.1406C20.5245 18.1783 21.2934 17.9605 21.936 17.5205C22.2634 17.2542 22.5319 16.923 22.7247 16.5476C22.9175 16.1723 23.0304 15.761 23.0562 15.3399H21.3462C21.272 16.4199 20.7485 16.96 19.7759 16.96Z"/></svg>

<svg width="32" height="32" viewBox="0 0 32 32" xmlns="http://www.w3.org/2000/svg"><path d="M25 3.5H7a5.006 5.006 0 0 0-5 5v12a5.02 5.02 0 0 0 1.938 3.941 3.248 3.248 0 0 1-1.001.892 1.542 1.542 0 0 0-.933 1.403A1.558 1.558 0 0 0 3.03 28.1a5.082 5.082 0 0 0 2.124.401 8.057 8.057 0 0 0 4.804-1.629c.234-.167.5-.396.774-.636.29-.274.606-.52.943-.735H25a5.006 5.006 0 0 0 5-5v-12a5.006 5.006 0 0 0-5-5Zm3 17a3.003 3.003 0 0 1-3 3H11.628c-.827-.046-1.484.59-2.213 1.23-.223.195-.436.385-.624.518l-.027.02a5.97 5.97 0 0 1-4.012 1.218 7.323 7.323 0 0 0 1.42-1.782c.1-.187.15-.397.142-.61a1.083 1.083 0 0 0-.614-.889A3.02 3.02 0 0 1 4 20.5v-12a3.003 3.003 0 0 1 3-3h18a3.003 3.003 0 0 1 3 3v12Z"/><path d="M12.381 16.96a1.353 1.353 0 0 1-1.09-.5 3.281 3.281 0 0 1-.54-2.09 3.52 3.52 0 0 1 .41-1.87 1.404 1.404 0 0 1 1.27-.69 1.442 1.442 0 0 1 1.5 1.33h1.68a2.844 2.844 0 0 0-.95-1.77 3.328 3.328 0 0 0-2.23-.73 3.349 3.349 0 0 0-2.38.83 3.776 3.776 0 0 0-1.05 2.9c-.052.972.246 1.93.84 2.7a3.102 3.102 0 0 0 2.51 1.07 3.573 3.573 0 0 0 2.19-.62 3.05 3.05 0 0 0 1.12-2.18h-1.71c-.074 1.08-.597 1.62-1.57 1.62ZM19.776 16.96a1.355 1.355 0 0 1-1.09-.5 3.288 3.288 0 0 1-.54-2.09 3.522 3.522 0 0 1 .41-1.87 1.402 1.402 0 0 1 1.27-.69 1.443 1.443 0 0 1 1.5 1.33h1.68a2.849 2.849 0 0 0-.95-1.77 3.329 3.329 0 0 0-2.23-.73 3.35 3.35 0 0 0-2.38.83 3.778 3.778 0 0 0-1.05 2.9c-.052.972.246 1.93.84 2.7a3.1 3.1 0 0 0 2.51 1.07 3.57 3.57 0 0 0 2.19-.62 3.05 3.05 0 0 0 1.12-2.18h-1.71c-.074 1.08-.598 1.62-1.57 1.62Z"/></svg>
